X:138
T:Croppies Lie Down TS.138
T:Go to the Devil and Shake Yourself,aka TS.138
T:When Sick is it Tea You Want?aka TS.138
T:Penniless Traveller,The,aka TS.138
M:6/8
L:1/8
Q:3/8=120
S:Thomas Sands’ MS,1810,Lincolnshire
R:jig
O:England;Lincolnshire
N:The title “Croppies Lie Down” for this tune only appears in this MS.
N:It usually refers to an entirely different Jig, and might be an error by TS.
Z:vmp.Ruairidh Greig, 2011
K:C
G2c cBA|GE<G GE<G|cec dfd|ecAA3|
G2c cBA|G3GEG|c3d3|eccc2:|
|:(e/f/)|gec BAG|AFFF2f/g/|afd cBA|BGGG3|
G2c cBA|GEG GAG|c3d3|ecc c2:|]

